X:3
T:Lomir Alle In Eynem
O:Traditional Jewish Folk Song
B:Hebrew and Jewish Songs and Dances, Elsie M. Bennett
B:Pietro Deiro Publications #829, 1951
M:C|
L:1/4
P:Gaily
K:Am
"Am"E2 A2 | A2 AA | E2 AA | A2 AA \
|: c2-cc | "B7"B A/A/ ^G A | "E"B2-B^G | E2-E2 :|
|: "Am"d2-dc | d c/c/ B "Ddim"A | "E"B2-BA | "B7"B A/A/ ^G "Bdim"F |
"E"E2 EE | "B7"BA ^G "Bdim"F |1 "E"E2 ^G2 | B2 e2 :|2 "E"E2-E2 | [^Ge] z z2 ||
